X:2743
L:1/8
M:4/4
K:C
[M:4/4][K:C] ae e ga[Q:1/8=120]"^allegro vivace" .[cc']2 [cc'][ee'] [Bb][dd'][Bb][Aa] || 
 gd e/f/g ec a2 | gf e/f/e/d/ c2 (3GEG | d2 (3AFA e2 (3BGB |"^5" f2 (3cAc g2 (3dBd | 
 g2 a2 [cc'][Bb][Aa][Bb] | c'2 ba ga/g/ fg/f/ | e4 dd de/d/ |"^9" de/d/ e/f/g cc c/d/c | 
 B/A/c/G/ d2 cEBD | ACGB, A,AGB | EcdB g/a/g/f/ g/a/g/f/ | 
"^13" e/f/e/d/ e/f/e/d/ c/B/c/d/ c/B/c/d/ | e/c/A/c/ e/c/A/c/ d/B/G/B/ d/B/G/B/ | 
 c/A/F/A/ f/A/F/A/ Gd c/B/A/G/ | c4 c4 ||"^17" GFED [cC][BB,][AA,][GG,] | 
 [AA,][BB,][cC][dD] [eE][eE]/[fF]/ [gG]2 | A/G/A/B/ c/B/c/A/ B/A/B/c/ d/c/d/B/ | 
 c/B/c/d/ e/d/e/c/ d/c/d/e/ f2 |"^21" eadg cedc | BgAf Gedc/B/ | EAEA B/c/d BG | 
 e/f/g/f/ ec a2 b2 |"^25" c'ebd acgB | Aage fedc | c4 c4 |]

